Newaita-dark/.DP/32/youtube-indicator-light-sync5.svg

<svg xmlns="http://www.w3.org/2000/svg" xmlns:xlink="http://www.w3.org/1999/xlink" width="32px" height="32px" viewBox="0 0 32 32" version="1.1">
<g id="surface1">
<path style=" stroke:none;fill-rule:nonzero;fill:rgb(93.333334%,93.333334%,93.333334%);fill-opacity:1;" d="M 24.566406 18.351562 C 24.382812 18.246094 24.160156 18.210938 23.941406 18.269531 C 23.882812 18.285156 23.832031 18.304688 23.78125 18.328125 C 22.703125 18.660156 21.742188 19.378906 21.136719 20.433594 C 20.527344 21.480469 20.386719 22.675781 20.636719 23.773438 C 20.640625 23.832031 20.652344 23.886719 20.664062 23.941406 C 20.785156 24.382812 21.234375 24.644531 21.675781 24.527344 C 22.121094 24.40625 22.378906 23.957031 22.261719 23.511719 C 22.246094 23.457031 22.230469 23.410156 22.207031 23.359375 C 22.058594 22.667969 22.164062 21.917969 22.550781 21.246094 C 22.9375 20.574219 23.535156 20.113281 24.207031 19.894531 C 24.261719 19.890625 24.316406 19.878906 24.367188 19.867188 C 24.808594 19.746094 25.070312 19.296875 24.953125 18.855469 C 24.894531 18.632812 24.75 18.457031 24.566406 18.351562 Z M 24.566406 18.351562 "/>
<path style=" stroke:none;fill-rule:nonzero;fill:rgb(93.333334%,93.333334%,93.333334%);fill-opacity:1;" d="M 25.707031 27.132812 C 25.890625 27.238281 26.113281 27.273438 26.335938 27.214844 C 26.390625 27.199219 26.441406 27.179688 26.492188 27.152344 C 27.570312 26.824219 28.53125 26.101562 29.136719 25.050781 C 29.746094 24 29.890625 22.808594 29.636719 21.707031 C 29.632812 21.652344 29.625 21.597656 29.609375 21.542969 C 29.492188 21.101562 29.039062 20.839844 28.597656 20.957031 C 28.15625 21.078125 27.894531 21.527344 28.011719 21.972656 C 28.027344 22.023438 28.046875 22.074219 28.070312 22.121094 C 28.214844 22.816406 28.113281 23.5625 27.722656 24.234375 C 27.335938 24.90625 26.738281 25.371094 26.066406 25.589844 C 26.015625 25.59375 25.960938 25.601562 25.910156 25.617188 C 25.464844 25.734375 25.207031 26.1875 25.324219 26.628906 C 25.382812 26.851562 25.527344 27.027344 25.707031 27.132812 Z M 25.707031 27.132812 "/>
<path style=" stroke:none;fill-rule:nonzero;fill:rgb(93.333334%,93.333334%,93.333334%);fill-opacity:1;" d="M 15.839844 5.816406 C 15.839844 5.816406 7.175781 5.816406 5.011719 6.386719 C 3.847656 6.707031 2.890625 7.664062 2.570312 8.847656 C 2 11.015625 2 15.507812 2 15.507812 C 2 15.507812 2 20.019531 2.570312 22.164062 C 2.890625 23.347656 3.824219 24.285156 5.011719 24.605469 C 7.199219 25.195312 15.839844 25.195312 15.839844 25.195312 C 15.839844 25.195312 17.984375 25.195312 20.410156 25.125 C 20.050781 24.410156 19.847656 23.601562 19.847656 22.742188 C 19.847656 19.808594 22.207031 17.449219 25.136719 17.449219 C 26.945312 17.449219 28.535156 18.347656 29.488281 19.722656 C 29.675781 17.679688 29.675781 15.527344 29.675781 15.527344 C 29.675781 15.527344 29.699219 11.015625 29.105469 8.847656 C 28.789062 7.664062 27.855469 6.730469 26.667969 6.410156 C 24.503906 5.816406 15.839844 5.816406 15.839844 5.816406 Z M 13.195312 10.441406 C 13.207031 10.441406 13.21875 10.441406 13.230469 10.441406 C 13.339844 10.441406 13.449219 10.472656 13.546875 10.53125 L 20.917969 14.886719 C 21.351562 15.144531 21.351562 15.777344 20.917969 16.035156 L 13.546875 20.386719 C 13.101562 20.652344 12.542969 20.332031 12.542969 19.816406 L 12.542969 11.105469 C 12.542969 10.738281 12.832031 10.445312 13.195312 10.441406 Z M 13.195312 10.441406 "/>
</g>
</svg>

<svg xmlns="http://www.w3.org/2000/svg" width="32" height="32"><g fill="#bdbdbd"><path d="M24.566 18.352a.83.83 0 0 0-.785-.024 4.613 4.613 0 0 0-3.145 5.445.823.823 0 0 0 1.04.75.82.82 0 0 0 .586-1.011.875.875 0 0 0-.055-.153 2.96 2.96 0 0 1 .344-2.109 2.972 2.972 0 0 1 1.656-1.355c.055-.004.105-.016.16-.028a.828.828 0 0 0 .2-1.515zm0 0M25.707 27.133a.83.83 0 0 0 .785.023 4.601 4.601 0 0 0 3.145-5.45 2.966 2.966 0 0 1-1.914 2.527 2.96 2.96 0 0 1-1.657 1.357.821.821 0 0 0-.742 1.04c.059.222.2.397.383.503zm0 0"/><path d="M15.84 5.816s-8.664 0-10.832.57A3.545 3.545 0 0 0 2.57 8.853C2 11.016 2 15.508 2 15.508s0 4.512.57 6.656a3.466 3.466 0 0 0 2.438 2.438c2.191.593 10.832.593 10.832.593s2.144 0 4.57-.07a5.24 5.24 0 0 1-.566-2.383 5.282 5.282 0 0 1 5.293-5.293c1.808 0 3.398.899 4.351 2.27.188-2.04.188-4.188.188-4.188s.023-4.515-.57-6.68a3.465 3.465 0 0 0-2.438-2.44C24.5 5.815 15.84 5.815 15.84 5.815zm-2.645 4.622h.035c.114.003.22.039.317.093l7.367 4.356a.667.667 0 0 1 0 1.148l-7.367 4.352a.663.663 0 0 1-1.004-.575v-8.707a.67.67 0 0 1 .652-.668zm0 0"/></g></svg>
